X: 15459
T: Glen Where The Deer Is, The
R: reel
M: 4/4
K: Dmajor
|:d2 ag fefg|ad d/d/d cdef|d2 ag fefg|1 f2 ed cAAc:|2 f2 ed cA A2||
|:fd d/d/d geeg|fd d/d/d cAAg|fd d/d/d geeg|1 fded cA A2:|2 fded cAAc||

